src/assets/images/Usuario/metodosdepago/contraentrega.svg

<?xml version="1.0" encoding="UTF-8"?>
<svg width="61px" height="58px" viewBox="0 0 61 58" version="1.1" xmlns="http://www.w3.org/2000/svg" xmlns:xlink="http://www.w3.org/1999/xlink">
    <!-- Generator: Sketch 52.4 (67378) - http://www.bohemiancoding.com/sketch -->
    <title>Recurso 2</title>
    <desc>Created with Sketch.</desc>
    <g id="Page-1" stroke="none" stroke-width="1" fill="none" fill-rule="evenodd">
        <g id="Metodos-de-pago" transform="translate(-517.000000, -1320.000000)" fill="#00D0D2" fill-rule="nonzero">
            <g id="Recurso-2" transform="translate(517.000000, 1320.000000)">
                <path d="M60.1773756,20.6629235 C59.4389001,19.5759964 58.258668,18.9318313 57.0017248,18.9296684 L20.9698057,18.9296684 C20.9144487,18.7857235 20.8609368,18.6398067 20.807425,18.4958617 C20.1136163,16.6896482 19.3958196,14.8223074 18.7979632,12.9470793 C17.3734412,8.47886997 14.3454093,4.84672454 9.79505785,2.14923543 L9.70464129,2.10191106 C7.56416779,1.13964886 5.2133374,0.220767337 2.60417401,0.0275261582 C1.74613937,-0.0355730023 0.93239039,-0.0414885486 0.404652956,0.591474905 C-0.123084477,1.22443836 -0.0345131599,2.08416442 0.114950938,2.9971304 C0.483998095,5.25489724 1.29774707,7.33519768 2.09673417,9.27944057 L2.16869836,9.42141368 C5.72815819,15.2896356 10.6291044,18.7029058 16.7294539,19.5685474 C16.9564179,19.600097 17.0855844,19.6809428 17.3845126,20.3139063 C18.4261631,22.4684269 19.2382294,24.7410766 19.805462,27.0891786 C20.7665171,31.1117223 20.9982649,35.2936501 20.4881992,39.4092897 C20.4881992,39.4270363 20.4881992,39.444783 20.478973,39.4645015 C20.0557748,41.7253133 19.4596067,43.9451831 18.6964753,46.1017444 C18.1530344,47.7060107 17.5037252,49.267036 16.753442,50.7730541 C16.7086632,50.8493881 16.6691919,50.9291339 16.6353469,51.0116478 L16.6353469,51.0215071 C16.6353469,51.0215071 16.6353469,51.0215071 16.6353469,51.0333382 C16.1665629,52.0542963 16.5610449,53.2880467 17.516447,53.7889968 C18.4718491,54.289947 19.62638,53.8683972 20.095164,52.847439 L20.1228425,52.7902554 C20.6339728,51.6860201 20.2538543,52.417576 20.6192109,51.6071462 C21.6438812,49.4127091 22.4741653,47.1206335 23.0992078,44.7608873 L52.0103621,44.7608873 C54.4919487,44.7335766 56.6351062,42.8984755 57.2010103,40.3163401 L60.8711843,24.4390139 C61.1806417,23.1327965 60.9260427,21.7471283 60.1773756,20.6629235 Z M14.703385,15.0944226 C11.9207695,13.9645532 5.49012277,10.7898767 4.26304098,5.22137581 C4.21568753,4.98657043 4.28496712,4.74226656 4.44632613,4.57504874 C4.60768514,4.40783092 4.83832065,4.34133003 5.05649236,4.39911487 C11.6993412,6.08701742 14.539159,11.5825599 15.5355864,14.1834284 C15.6332796,14.4393032 15.5796211,14.73273 15.3989743,14.9304804 C15.2183274,15.1282309 14.9451142,15.1926241 14.703385,15.0944226 Z M58.2915447,23.6956269 L54.6176802,39.5709813 C54.3292363,40.8641463 53.2506888,41.7788582 52.0066716,41.7853675 L23.757957,41.7853675 C23.789326,41.6118448 23.8188498,41.4363502 23.8465283,41.2628275 C24.0687816,39.8842289 24.2233777,38.4941469 24.3096825,37.098283 L35.6117517,37.098283 C36.0767511,37.098283 36.960619,36.3706708 36.960619,35.4734796 C36.960619,34.5762884 36.0767511,33.8486762 35.6117517,33.8486762 L24.3908729,33.8486762 C24.3720112,32.3932454 24.2684782,30.9404761 24.0808733,29.4987778 L42.0073389,29.4987778 C42.5240049,29.4987778 43.4503133,28.7711656 43.4503133,27.8739744 C43.4503133,26.9767832 42.5276954,26.249171 42.0073389,26.249171 L23.4811716,26.249171 C23.1834788,24.9971688 22.7973315,23.7711044 22.326054,22.5815323 C22.239328,22.3606853 22.1544471,22.1358945 22.0695663,21.913074 L57.0017248,21.9130756 C57.4217727,21.9124011 57.8167998,22.1263988 58.0645807,22.4888554 C58.3079671,22.8333296 58.3914887,23.2774154 58.2915447,23.6956269 Z" id="Shape"></path>
                <path d="M23.0797137,14.079487 C23.1133303,14.8832361 23.2214653,15.6783929 23.401665,16.446913 C23.5447544,16.9969002 23.7220609,17.6874856 24.1793249,17.9169915 L24.2182079,17.9376677 C24.6754719,18.1444298 25.1140722,17.8032723 25.5588936,17.4062891 C27.4252775,15.7397866 28.716193,13.5419056 29.3834252,10.8684717 C30.1501979,8.23845786 30.2015235,5.45337245 29.5389572,2.59798793 C29.3834252,1.93841685 29.1983422,1.2809134 28.7224143,1.0638132 C28.2464864,0.846712998 27.7892224,1.22095239 27.3630647,1.62413847 C24.1295547,4.67387936 22.6784412,8.75743072 23.0594946,13.7776144 L23.0797137,14.079487 Z M27.4548286,4.69248795 C27.5471295,4.55637741 27.6918556,4.50718942 27.8219708,4.56770753 C27.9520861,4.62822564 28.0421778,4.78663015 28.0505161,4.96954915 C28.1158395,6.73529744 27.9338671,8.30462173 27.5061541,9.64857534 L27.4983775,9.67545442 L27.4983775,9.70026587 C26.9960092,11.5611247 26.3178897,13.1531928 25.5448958,14.319331 C25.45259,14.4571161 25.3068195,14.5071283 25.175885,14.4459345 C25.0449505,14.3847406 24.9547918,14.224464 24.9476529,14.0402022 C24.7998975,10.4528799 25.628883,7.37419231 27.4548286,4.69248795 Z" id="Shape"></path>
                <path d="M16.9954204,23.543109 C17.0534386,22.8546444 16.5512183,22.3073151 15.998232,21.8219475 C12.0856275,18.415769 5.37908242,18.0353923 1.04947183,20.99579 C0.799268208,21.1679062 0.0395919781,21.6842546 0.0015175131,22.508691 C-0.0365569519,23.3331273 0.652409557,23.8856201 0.879043277,24.0732267 C2.90261401,25.7369878 5.42537818,26.7556245 8.09143478,26.985432 L8.14220074,26.985432 C10.9778418,27.1076344 13.5433356,26.4604777 15.7570937,25.0646158 C16.3699113,24.6825179 16.9374021,24.2315736 16.9954204,23.543109 Z M12.5878478,23.5826957 C11.2011916,23.8994687 9.77207505,24.0155227 8.34889069,23.926928 C6.96055398,23.8487018 5.59464276,23.5580989 4.30393205,23.0663473 C4.14395744,23.0133657 4.04084141,22.8656078 4.0518312,22.7051047 C4.062821,22.5446016 4.18521848,22.410759 4.35107187,22.3778827 C7.10023071,21.7121321 10.0011308,21.8929494 12.6349876,22.8942311 C12.7925646,22.9492432 12.8932214,23.0961319 12.8823312,23.2551801 C12.871441,23.4142284 12.7516006,23.5475113 12.5878478,23.5826957 Z" id="Shape"></path>
                <path d="M49.5043112,47 C49.2517597,47.0006347 48.999539,47.018337 48.7493686,47.0529863 L30.2462206,47.0529863 C29.995457,47.0183537 29.7426508,47.0006517 29.4895141,47 C27.0390499,47.0016457 24.8860745,48.6284394 24.2122221,50.9875355 C23.5383697,53.3466315 24.5066544,55.8673327 26.5856449,57.1661829 C28.6646353,58.4650332 31.3513958,58.2278232 33.1713307,56.5847427 C34.9912655,54.9416623 35.5041079,52.2901946 34.4283906,50.0855655 L44.5830735,50.0855655 C43.5105032,52.2882258 44.0248098,54.9358754 45.8437222,56.5753838 C47.6626347,58.2148923 50.3461335,58.4496402 52.4214128,57.1507891 C54.4966921,55.851938 55.4617137,53.3336975 54.7868373,50.9781735 C54.1119608,48.6226495 51.960448,46.999675 49.5131306,47 L49.5043112,47 Z M29.4895141,54.4922545 C28.3867576,54.4922545 27.4927969,53.5971161 27.4927969,52.492907 C27.4927969,51.3886979 28.3867576,50.4935595 29.4895141,50.4935595 C30.5922706,50.4935595 31.4862313,51.3886979 31.4862313,52.492907 C31.4842896,53.5963098 30.5914653,54.4903102 29.4895141,54.4922545 Z M49.5043112,54.4922545 C48.4015547,54.4922545 47.507594,53.5971161 47.507594,52.492907 C47.507594,51.3886979 48.4015547,50.4935595 49.5043112,50.4935595 C50.6070677,50.4935595 51.5010284,51.3886979 51.5010284,52.492907 C51.5000559,53.5967125 50.6066646,54.4912807 49.5043112,54.4922545 Z" id="Shape"></path>
            </g>
        </g>
    </g>
</svg>

<svg xmlns="http://www.w3.org/2000/svg" width="61" height="58"><title>Recurso 2</title><desc>Created with Sketch.</desc><g fill="none"><g fill="#00D0D2" fill-rule="nonzero"><g><path d="M60.18 20.66c-.74-1.08-1.92-1.73-3.18-1.73H20.97c-.06-.14-.1-.3-.16-.43-.7-1.8-1.4-3.68-2-5.55-1.43-4.47-4.45-8.1-9-10.8l-.1-.05C7.56 1.14 5.2.22 2.6.03 1.75-.04.93-.04.4.6-.12 1.2-.03 2.07.1 3c.38 2.25 1.2 4.34 2 6.28l.07.14c3.56 5.87 8.46 9.28 14.56 10.15.23.03.36.1.65.74 1.05 2.17 1.86 4.44 2.43 6.8.97 4 1.2 8.2.7 12.3 0 .03 0 .04-.02.06-.42 2.27-1.02 4.5-1.78 6.64-.55 1.6-1.2 3.17-1.95 4.67-.04.08-.08.16-.1.24v.02c-.48 1.03-.1 2.27.87 2.77.95.5 2.1.07 2.58-.95l.02-.06c.5-1.1.13-.38.5-1.2 1.02-2.2 1.85-4.48 2.48-6.84H52c2.5-.03 4.64-1.86 5.2-4.44l3.67-15.88c.3-1.3.06-2.7-.7-3.78zM14.7 15.1c-2.78-1.14-9.2-4.3-10.44-9.88-.04-.23.02-.48.2-.64.15-.17.38-.24.6-.18 6.64 1.7 9.48 7.18 10.48 9.78.1.26.04.55-.14.75-.18.2-.45.26-.7.16zm43.6 8.6L54.6 39.57c-.3 1.3-1.37 2.2-2.6 2.22H23.75c.03-.2.06-.36.1-.54.2-1.38.36-2.77.45-4.16h11.3c.48 0 1.36-.73 1.36-1.63 0-.9-.88-1.62-1.35-1.62H24.4c-.03-1.46-.13-2.9-.32-4.35H42c.52 0 1.45-.73 1.45-1.63 0-.9-.92-1.62-1.44-1.62H23.5c-.3-1.25-.68-2.48-1.15-3.67-.1-.22-.18-.44-.26-.67H57c.42 0 .82.23 1.06.6.25.33.33.78.23 1.2zM23.08 14.08c.03.8.14 1.6.32 2.37.14.55.32 1.24.78 1.47l.04.02c.46.2.9-.14 1.34-.53 1.87-1.66 3.16-3.86 3.82-6.53.77-2.63.82-5.42.16-8.27-.16-.66-.34-1.32-.82-1.54-.47-.2-.93.16-1.36.56-3.23 3.05-4.68 7.14-4.3 12.16l.02.3zm4.37-9.4c.1-.12.24-.17.37-.1.13.05.22.2.23.4.07 1.76-.12 3.32-.54 4.67v.05c-.5 1.86-1.18 3.45-1.96 4.62-.1.14-.23.2-.36.13-.14-.07-.23-.23-.23-.4-.15-3.6.68-6.68 2.5-9.36zM17 23.54c.05-.7-.45-1.23-1-1.72-3.9-3.4-10.62-3.78-14.95-.82-.25.17-1 .68-1.05 1.5-.04.83.65 1.4.88 1.57 2.02 1.67 4.55 2.7 7.2 2.92h.06c2.84.1 5.4-.54 7.62-1.94.6-.38 1.18-.83 1.24-1.52zm-4.4.04c-1.4.32-2.83.44-4.25.35-1.4-.08-2.76-.37-4.05-.86-.16-.06-.26-.2-.25-.36 0-.16.14-.3.3-.32 2.75-.67 5.65-.5 8.28.5.16.07.26.22.25.38 0 .15-.13.3-.3.32zM49.5 47c-.25 0-.5.02-.75.05h-18.5c-.25-.03-.5-.05-.76-.05-2.46 0-4.6 1.63-5.3 4-.66 2.35.3 4.87 2.4 6.17 2.06 1.3 4.75 1.06 6.57-.6 1.82-1.63 2.33-4.28 1.26-6.48h10.15c-1.07 2.2-.56 4.84 1.26 6.48 1.82 1.63 4.5 1.87 6.58.57 2.08-1.3 3.04-3.82 2.37-6.17-.7-2.36-2.84-3.98-5.3-3.98zm-20 7.5c-1.1 0-2-.9-2-2s.9-2 2-2 2 .9 2 2c-.02 1.1-.9 2-2 2zm20 0c-1.1 0-2-.9-2-2s.9-2 2-2 2 .9 2 2-.9 2-2 2z"/></g></g></g></svg>
